MonoIcons/scalable/status/network-cellular-no-route-symbolic-rtl.svg

<?xml version="1.0" encoding="UTF-8"?>
<svg height="16px" viewBox="0 0 16 16" width="16px" xmlns="http://www.w3.org/2000/svg">
    <path d="m 3 1 c 0.554688 0 1 0.445312 1 1 v 12 c 0 0.554688 -0.445312 1 -1 1 h -1 c -0.554688 0 -1 -0.445312 -1 -1 v -12 c 0 -0.554688 0.445312 -1 1 -1 z m 8.75 6.347656 c 0.152344 0.175782 0.25 0.402344 0.25 0.652344 v 6 c 0 0.554688 -0.445312 1 -1 1 h -1 c -0.554688 0 -1 -0.445312 -1 -1 v -0.28125 c 0.613281 -0.355469 0.996094 -1.007812 1 -1.71875 v -2.546875 c 0.8125 -0.472656 1.433594 -1.21875 1.75 -2.105469 z m -6.75 1.277344 c 0.285156 0.328125 0.625 0.609375 1 0.828125 v 2.546875 c 0 1.105469 0.894531 2 2 2 c 0 0.554688 -0.445312 1 -1 1 h -1 c -0.554688 0 -1 -0.445312 -1 -1 z m 10 1.375 c 0.554688 0 1 0.445312 1 1 v 3 c 0 0.554688 -0.445312 1 -1 1 h -1 c -0.554688 0 -1 -0.445312 -1 -1 v -3 c 0 -0.554688 0.445312 -1 1 -1 z m 0 0" fill="#2e3434" fill-opacity="0.34902"/>
    <path d="m 8.152344 3.007812 c -0.4375 -0.023437 -0.878906 0.046876 -1.300782 0.222657 c -1.117187 0.460937 -1.851562 1.558593 -1.851562 2.769531 h 2 c 0 -0.40625 0.242188 -0.769531 0.617188 -0.925781 c 0.378906 -0.152344 0.804687 -0.070313 1.089843 0.21875 c 0.289063 0.289062 0.375 0.714843 0.21875 1.089843 s -0.515625 0.617188 -0.925781 0.617188 c -0.550781 0 -1 0.449219 -1 1 v 2 h 2 v -1.179688 c 0.789062 -0.28125 1.441406 -0.875 1.773438 -1.671874 c 0.460937 -1.117188 0.203124 -2.414063 -0.652344 -3.269532 c -0.535156 -0.535156 -1.238282 -0.835937 -1.96875 -0.871094 z m -0.152344 7.992188 c -0.550781 0 -1 0.449219 -1 1 s 0.449219 1 1 1 c 0.554688 0 1 -0.449219 1 -1 s -0.445312 -1 -1 -1 z m 0 0" fill="#2e3436"/>
</svg>

<svg width="16" height="16" viewBox="0 0 16 16" fill="none" xmlns="http://www.w3.org/2000/svg">
<path d="M3 0.999756C3.55469 0.999756 4 1.44507 4 1.99976V13.9998C4 14.5544 3.55469 14.9998 3 14.9998H2C1.44531 14.9998 1 14.5544 1 13.9998V1.99976C1 1.44507 1.44531 0.999756 2 0.999756H3ZM7 3.99976C7.55469 3.99976 8 4.44507 8 4.99976V13.9998C8 14.5544 7.55469 14.9998 7 14.9998H6C5.44531 14.9998 5 14.5544 5 13.9998V4.99976C5 4.44507 5.44531 3.99976 6 3.99976H7ZM11 6.99976C11.5547 6.99976 12 7.44507 12 7.99976V13.9998C12 14.5544 11.5547 14.9998 11 14.9998H10C9.44531 14.9998 9 14.5544 9 13.9998V7.99976C9 7.44507 9.44531 6.99976 10 6.99976H11Z" fill="#2E3436" fill-opacity="0.5"/>
<rect x="13.1587" y="12.1763" width="2.6623" height="2.6623" rx="1.33115" fill="#2E3436"/>
<rect x="13.4917" y="2.5" width="1.99672" height="8.65247" rx="0.998362" fill="#2E3436"/>
</svg>
